pricing-meter-frontEnd/src/assets/img/Agency.svg

<svg width="132" height="103" viewBox="0 0 132 103" fill="none" xmlns="http://www.w3.org/2000/svg">
<path d="M125.227 40.25H117.988C117.622 40.25 117.324 39.9527 117.324 39.5859C117.324 39.2192 117.622 38.9219 117.988 38.9219H125.227C128.178 38.9219 130.672 36.489 130.672 33.6094C130.672 29.8799 126.838 27.3986 123.449 28.6013C123.241 28.6751 123.01 28.6407 122.833 28.5096C122.655 28.3786 122.554 28.1679 122.564 27.9474C122.739 23.7887 119.101 20.3281 115 20.3281C110.868 20.3281 107.259 23.7652 107.436 27.9474C107.446 28.1678 107.345 28.3786 107.167 28.5097C106.99 28.6408 106.759 28.6751 106.551 28.6013C103.137 27.3896 99.3281 29.9029 99.3281 33.6094C99.3281 36.489 101.822 38.9219 104.773 38.9219H112.012C112.378 38.9219 112.676 39.2192 112.676 39.5859C112.676 39.9527 112.378 40.25 112.012 40.25H104.773C101.088 40.25 98 37.2672 98 33.6094C98 29.3034 102.081 26.2718 106.12 27.1053C106.419 22.5675 110.43 19 115 19C119.533 19 123.574 22.5801 123.879 27.1055C127.915 26.272 132 29.301 132 33.6094C132 37.2649 128.914 40.25 125.227 40.25Z" fill="#006AFF"/>
<path d="M6.36236 102.123H25.6798C26.4104 102.123 27.0018 101.531 27.0018 100.798V27.1468C27.0018 26.5635 26.6195 26.046 26.0579 25.8799L6.7429 20.1209C6.74256 20.1208 6.74222 20.1207 6.74188 20.1206C6.3411 19.998 5.90738 20.078 5.57352 20.3255C5.23739 20.5746 5.04041 20.9694 5.04041 21.3871V100.801C5.04041 101.531 5.63231 102.123 6.36236 102.123ZM24.3579 28.1331V99.4758H7.68751V23.1624L24.3579 28.1331Z" fill="#006AFF" stroke="#006AFF" stroke-width="0.5"/>
<path d="M96.889 56.6055L96.888 56.6052L77.5724 50.846C77.5721 50.8459 77.5718 50.8458 77.5714 50.8457C77.1706 50.7231 76.7369 50.8031 76.403 51.0506C76.0669 51.2997 75.8699 51.6945 75.8699 52.1122V100.801C75.8699 101.531 76.4618 102.123 77.1919 102.123H96.5062C97.2367 102.123 97.8266 101.531 97.8345 100.804V100.801V57.8751C97.8345 57.2866 97.4473 56.7746 96.889 56.6055ZM95.1842 58.8614V99.4759H78.5138V53.8907L95.1842 58.8614Z" fill="#006AFF" stroke="#006AFF" stroke-width="0.5"/>
<path d="M50.9695 27.7126L50.9679 27.7132C50.4568 27.9098 50.1133 28.4016 50.1133 28.9513V100.801C50.1133 101.531 50.7052 102.123 51.4352 102.123H77.1876C77.9206 102.123 78.512 101.531 78.516 100.802V100.801V19.243C78.516 18.8088 78.3029 18.4027 77.9448 18.1546C77.5883 17.9054 77.1305 17.8508 76.7247 18.0044L50.9695 27.7126ZM75.8657 21.1532V99.4756H52.7572V29.8666L75.8657 21.1532Z" fill="#006AFF" stroke="#006AFF" stroke-width="0.5"/>
<path d="M50.881 0.869201L50.8818 0.868822C51.2904 0.684158 51.7676 0.714842 52.1475 0.960225C52.5256 1.20438 52.7547 1.6224 52.7547 2.07259V100.8V100.801L50.881 0.869201ZM50.881 0.869201L25.1259 12.622C25.1258 12.6221 25.1257 12.6221 25.1256 12.6222M50.881 0.869201L25.1256 12.6222M25.1256 12.6222L25.1254 12.6223L25.2292 12.8497L25.1256 12.6222ZM50.1108 4.12861V99.4756H27.0023V14.6743L50.1108 4.12861Z" fill="#006AFF" stroke="#006AFF" stroke-width="0.5"/>
<path d="M2.07195 102.123H100.797C101.53 102.123 102.122 101.531 102.122 100.801C102.122 100.071 101.53 99.479 100.8 99.479H2.07195C1.3419 99.479 0.75 100.071 0.75 100.801C0.75 101.531 1.34191 102.123 2.07195 102.123Z" fill="#006AFF" stroke="#006AFF" stroke-width="0.5"/>
<path d="M34.2631 21.3866H29.9721V29.9718H34.2631V21.3866Z" fill="#006AFF"/>
<path d="M40.7003 21.3866H36.4093V29.9718H40.7003V21.3866Z" fill="#006AFF"/>
<path d="M47.1421 21.3866H42.8511V29.9718H47.1421V21.3866Z" fill="#006AFF"/>
<path d="M34.2631 32.1189H29.9721V40.7041H34.2631V32.1189Z" fill="#006AFF"/>
<path d="M40.7003 32.1189H36.4093V40.7041H40.7003V32.1189Z" fill="#006AFF"/>
<path d="M47.1421 32.1189H42.8511V40.7041H47.1421V32.1189Z" fill="#006AFF"/>
<path d="M34.2631 42.848H29.9721V51.4332H34.2631V42.848Z" fill="#006AFF"/>
<path d="M40.7003 42.848H36.4093V51.4332H40.7003V42.848Z" fill="#006AFF"/>
<path d="M47.1421 42.848H42.8511V51.4332H47.1421V42.848Z" fill="#006AFF"/>
<path d="M60.0213 32.1189H55.7271V36.4099H60.0213V32.1189Z" fill="#006AFF"/>
<path d="M66.4601 32.1189H62.1659V36.4099H66.4601V32.1189Z" fill="#006AFF"/>
<path d="M72.8941 32.1189H68.6031V36.4099H72.8941V32.1189Z" fill="#006AFF"/>
<path d="M60.0213 38.5576H55.7271V42.8486H60.0213V38.5576Z" fill="#006AFF"/>
<path d="M66.4601 38.5576H62.1659V42.8486H66.4601V38.5576Z" fill="#006AFF"/>
<path d="M72.8941 38.5576H68.6031V42.8486H72.8941V38.5576Z" fill="#006AFF"/>
<path d="M60.0213 44.9956H55.7271V49.2898H60.0213V44.9956Z" fill="#006AFF"/>
<path d="M66.4601 44.9956H62.1659V49.2898H66.4601V44.9956Z" fill="#006AFF"/>
<path d="M72.8941 44.9956H68.6031V49.2898H72.8941V44.9956Z" fill="#006AFF"/>
<path d="M60.0213 51.4336H55.7271V55.7278H60.0213V51.4336Z" fill="#006AFF"/>
<path d="M66.4601 51.4336H62.1659V55.7278H66.4601V51.4336Z" fill="#006AFF"/>
<path d="M72.8941 51.4336H68.6031V55.7278H72.8941V51.4336Z" fill="#006AFF"/>
<path d="M60.0213 57.8746H55.7271V62.1688H60.0213V57.8746Z" fill="#006AFF"/>
<path d="M66.4601 57.8746H62.1659V62.1688H66.4601V57.8746Z" fill="#006AFF"/>
<path d="M72.8941 57.8746H68.6031V62.1688H72.8941V57.8746Z" fill="#006AFF"/>
<path d="M60.0213 64.3126H55.7271V68.6068H60.0213V64.3126Z" fill="#006AFF"/>
<path d="M66.4601 64.3126H62.1659V68.6068H66.4601V64.3126Z" fill="#006AFF"/>
<path d="M72.8941 64.3126H68.6031V68.6068H72.8941V64.3126Z" fill="#006AFF"/>
<path d="M60.0213 70.7506H55.7271V75.0448H60.0213V70.7506Z" fill="#006AFF"/>
<path d="M66.4601 70.7506H62.1659V75.0448H66.4601V70.7506Z" fill="#006AFF"/>
<path d="M72.8941 70.7506H68.6031V75.0448H72.8941V70.7506Z" fill="#006AFF"/>
<path d="M92.2113 64.3126H81.4822V68.6068H92.2113V64.3126Z" fill="#006AFF"/>
<path d="M92.2113 70.7506H81.4822V75.0448H92.2113V70.7506Z" fill="#006AFF"/>
<path d="M92.2113 77.1895H81.4822V81.4836H92.2113V77.1895Z" fill="#006AFF"/>
<path d="M21.3896 40.7043H10.6573V44.9985H21.3896V40.7043Z" fill="#006AFF"/>
<path d="M21.3896 47.1423H10.6573V51.4365H21.3896V47.1423Z" fill="#006AFF"/>
<path d="M21.3896 53.5803H10.6573V57.8745H21.3896V53.5803Z" fill="#006AFF"/>
<path d="M21.3896 60.0183H10.6573V64.3125H21.3896V60.0183Z" fill="#006AFF"/>
<path d="M21.3896 66.4602H10.6573V70.7512H21.3896V66.4602Z" fill="#006AFF"/>
<path d="M21.3896 72.8982H10.6573V77.1924H21.3896V72.8982Z" fill="#006AFF"/>
<path d="M21.3896 79.3362H10.6573V83.6304H21.3896V79.3362Z" fill="#006AFF"/>
<path d="M21.3896 85.7742H10.6573V90.0684H21.3896V85.7742Z" fill="#006AFF"/>
<path d="M21.3896 92.2152H10.6573V96.5062H21.3896V92.2152Z" fill="#006AFF"/>
<path d="M92.2113 83.6305H81.4822V87.9215H92.2113V83.6305Z" fill="#006AFF"/>
<path d="M60.0213 77.1895H55.7271V81.4836H60.0213V77.1895Z" fill="#006AFF"/>
<path d="M66.4601 77.1895H62.1659V81.4836H66.4601V77.1895Z" fill="#006AFF"/>
<path d="M72.8941 77.1895H68.6031V81.4836H72.8941V77.1895Z" fill="#006AFF"/>
<path d="M60.0213 83.6305H55.7271V87.9215H60.0213V83.6305Z" fill="#006AFF"/>
<path d="M66.4601 83.6305H62.1659V87.9215H66.4601V83.6305Z" fill="#006AFF"/>
<path d="M72.8941 83.6305H68.6031V87.9215H72.8941V83.6305Z" fill="#006AFF"/>
<path d="M60.0213 90.0685H55.7271V94.3627H60.0213V90.0685Z" fill="#006AFF"/>
<path d="M66.4601 90.0685H62.1659V94.3627H66.4601V90.0685Z" fill="#006AFF"/>
<path d="M72.8941 90.0685H68.6031V94.3627H72.8941V90.0685Z" fill="#006AFF"/>
<path d="M34.2631 53.5803H29.9721V62.1655H34.2631V53.5803Z" fill="#006AFF"/>
<path d="M40.7003 53.5803H36.4093V62.1655H40.7003V53.5803Z" fill="#006AFF"/>
<path d="M47.1421 53.5803H42.8511V62.1655H47.1421V53.5803Z" fill="#006AFF"/>
<path d="M34.2631 64.3126H29.9721V72.8978H34.2631V64.3126Z" fill="#006AFF"/>
<path d="M40.7003 64.3126H36.4093V72.8978H40.7003V64.3126Z" fill="#006AFF"/>
<path d="M47.1421 64.3126H42.8511V72.8978H47.1421V64.3126Z" fill="#006AFF"/>
<path d="M34.2631 75.0449H29.9721V83.6301H34.2631V75.0449Z" fill="#006AFF"/>
<path d="M40.7003 75.0449H36.4093V83.6301H40.7003V75.0449Z" fill="#006AFF"/>
<path d="M47.1421 75.0449H42.8511V83.6301H47.1421V75.0449Z" fill="#006AFF"/>
<path d="M34.2631 85.7742H29.9721V94.3594H34.2631V85.7742Z" fill="#006AFF"/>
<path d="M40.7003 85.7742H36.4093V94.3594H40.7003V85.7742Z" fill="#006AFF"/>
<path d="M47.1421 85.7742H42.8511V94.3594H47.1421V85.7742Z" fill="#006AFF"/>
</svg>

<?xml version="1.0" encoding="utf-8"?>
<!-- Generator: Adobe Illustrator 25.0.1, SVG Export Plug-In . SVG Version: 6.00 Build 0)  -->
<svg version="1.1" id="Layer_1" xmlns="http://www.w3.org/2000/svg" xmlns:xlink="http://www.w3.org/1999/xlink" x="0px" y="0px"
	 viewBox="0 0 132 103" style="enable-background:new 0 0 132 103;" xml:space="preserve">
<style type="text/css">
	.st0{fill:#006AFF;}
	.st1{fill:#006AFF;stroke:#006AFF;stroke-width:0.5;}
</style>
<path class="st0" d="M125.2,40.2H118c-0.4,0-0.7-0.3-0.7-0.7c0-0.4,0.3-0.7,0.7-0.7h7.2c3,0,5.4-2.4,5.4-5.3c0-3.7-3.8-6.2-7.2-5
	c-0.2,0.1-0.4,0-0.6-0.1c-0.2-0.1-0.3-0.3-0.3-0.6c0.2-4.2-3.5-7.6-7.6-7.6c-4.1,0-7.7,3.4-7.6,7.6c0,0.2-0.1,0.4-0.3,0.6
	c-0.2,0.1-0.4,0.2-0.6,0.1c-3.4-1.2-7.2,1.3-7.2,5c0,2.9,2.5,5.3,5.4,5.3h7.2c0.4,0,0.7,0.3,0.7,0.7c0,0.4-0.3,0.7-0.7,0.7h-7.2
	c-3.7,0-6.8-3-6.8-6.6c0-4.3,4.1-7.3,8.1-6.5c0.3-4.5,4.3-8.1,8.9-8.1c4.5,0,8.6,3.6,8.9,8.1c4-0.8,8.1,2.2,8.1,6.5
	C132,37.3,128.9,40.2,125.2,40.2z"/>
<path class="st1" d="M6.4,102.1h19.3c0.7,0,1.3-0.6,1.3-1.3V27.1c0-0.6-0.4-1.1-0.9-1.3L6.7,20.1c0,0,0,0,0,0
	c-0.4-0.1-0.8,0-1.2,0.2C5.2,20.6,5,21,5,21.4v79.4C5,101.5,5.6,102.1,6.4,102.1z M24.4,28.1v71.3H7.7V23.2L24.4,28.1z"/>
<path class="st1" d="M96.9,56.6L96.9,56.6l-19.3-5.8c0,0,0,0,0,0c-0.4-0.1-0.8,0-1.2,0.2c-0.3,0.2-0.5,0.6-0.5,1.1v48.7
	c0,0.7,0.6,1.3,1.3,1.3h19.3c0.7,0,1.3-0.6,1.3-1.3v0V57.9C97.8,57.3,97.4,56.8,96.9,56.6z M95.2,58.9v40.6H78.5V53.9L95.2,58.9z"/>
<path class="st1" d="M51,27.7L51,27.7c-0.5,0.2-0.9,0.7-0.9,1.2v71.8c0,0.7,0.6,1.3,1.3,1.3h25.8c0.7,0,1.3-0.6,1.3-1.3v0V19.2
	c0-0.4-0.2-0.8-0.6-1.1c-0.4-0.2-0.8-0.3-1.2-0.2L51,27.7z M75.9,21.2v78.3H52.8V29.9L75.9,21.2z"/>
<path class="st1" d="M25.2,10.7L25.2,10.7c-0.5,0.2-0.9,0.7-0.9,1.2v88.8c0,0.7,0.6,1.3,1.3,1.3h25.8c0.7,0,1.3-0.6,1.3-1.3v0V2.2
	c0-0.4-0.2-0.8-0.6-1.1C51.8,0.9,51.4,0.9,51,1L25.2,10.7z M50.1,4.2v95.3H27V12.9L50.1,4.2z"/>
<path class="st1" d="M2.1,102.1h98.7c0.7,0,1.3-0.6,1.3-1.3c0-0.7-0.6-1.3-1.3-1.3H2.1c-0.7,0-1.3,0.6-1.3,1.3
	C0.8,101.5,1.3,102.1,2.1,102.1z"/>
<path class="st0" d="M34.3,21.4H30V30h4.3V21.4z"/>
<path class="st0" d="M40.7,21.4h-4.3V30h4.3V21.4z"/>
<path class="st0" d="M47.1,21.4h-4.3V30h4.3V21.4z"/>
<path class="st0" d="M34.3,32.1H30v8.6h4.3V32.1z"/>
<path class="st0" d="M40.7,32.1h-4.3v8.6h4.3V32.1z"/>
<path class="st0" d="M47.1,32.1h-4.3v8.6h4.3V32.1z"/>
<path class="st0" d="M34.3,42.8H30v8.6h4.3V42.8z"/>
<path class="st0" d="M40.7,42.8h-4.3v8.6h4.3V42.8z"/>
<path class="st0" d="M47.1,42.8h-4.3v8.6h4.3V42.8z"/>
<path class="st0" d="M60,32.1h-4.3v4.3H60V32.1z"/>
<path class="st0" d="M66.5,32.1h-4.3v4.3h4.3V32.1z"/>
<path class="st0" d="M72.9,32.1h-4.3v4.3h4.3V32.1z"/>
<path class="st0" d="M60,38.6h-4.3v4.3H60V38.6z"/>
<path class="st0" d="M66.5,38.6h-4.3v4.3h4.3V38.6z"/>
<path class="st0" d="M72.9,38.6h-4.3v4.3h4.3V38.6z"/>
<path class="st0" d="M60,45h-4.3v4.3H60V45z"/>
<path class="st0" d="M66.5,45h-4.3v4.3h4.3V45z"/>
<path class="st0" d="M72.9,45h-4.3v4.3h4.3V45z"/>
<path class="st0" d="M60,51.4h-4.3v4.3H60V51.4z"/>
<path class="st0" d="M66.5,51.4h-4.3v4.3h4.3V51.4z"/>
<path class="st0" d="M72.9,51.4h-4.3v4.3h4.3V51.4z"/>
<path class="st0" d="M60,57.9h-4.3v4.3H60V57.9z"/>
<path class="st0" d="M66.5,57.9h-4.3v4.3h4.3V57.9z"/>
<path class="st0" d="M72.9,57.9h-4.3v4.3h4.3V57.9z"/>
<path class="st0" d="M60,64.3h-4.3v4.3H60V64.3z"/>
<path class="st0" d="M66.5,64.3h-4.3v4.3h4.3V64.3z"/>
<path class="st0" d="M72.9,64.3h-4.3v4.3h4.3V64.3z"/>
<path class="st0" d="M60,70.8h-4.3V75H60V70.8z"/>
<path class="st0" d="M66.5,70.8h-4.3V75h4.3V70.8z"/>
<path class="st0" d="M72.9,70.8h-4.3V75h4.3V70.8z"/>
<path class="st0" d="M92.2,64.3H81.5v4.3h10.7V64.3z"/>
<path class="st0" d="M92.2,70.8H81.5V75h10.7V70.8z"/>
<path class="st0" d="M92.2,77.2H81.5v4.3h10.7V77.2z"/>
<path class="st0" d="M21.4,40.7H10.7V45h10.7V40.7z"/>
<path class="st0" d="M21.4,47.1H10.7v4.3h10.7V47.1z"/>
<path class="st0" d="M21.4,53.6H10.7v4.3h10.7V53.6z"/>
<path class="st0" d="M21.4,60H10.7v4.3h10.7V60z"/>
<path class="st0" d="M21.4,66.5H10.7v4.3h10.7V66.5z"/>
<path class="st0" d="M21.4,72.9H10.7v4.3h10.7V72.9z"/>
<path class="st0" d="M21.4,79.3H10.7v4.3h10.7V79.3z"/>
<path class="st0" d="M21.4,85.8H10.7v4.3h10.7V85.8z"/>
<path class="st0" d="M21.4,92.2H10.7v4.3h10.7V92.2z"/>
<path class="st0" d="M92.2,83.6H81.5v4.3h10.7V83.6z"/>
<path class="st0" d="M60,77.2h-4.3v4.3H60V77.2z"/>
<path class="st0" d="M66.5,77.2h-4.3v4.3h4.3V77.2z"/>
<path class="st0" d="M72.9,77.2h-4.3v4.3h4.3V77.2z"/>
<path class="st0" d="M60,83.6h-4.3v4.3H60V83.6z"/>
<path class="st0" d="M66.5,83.6h-4.3v4.3h4.3V83.6z"/>
<path class="st0" d="M72.9,83.6h-4.3v4.3h4.3V83.6z"/>
<path class="st0" d="M60,90.1h-4.3v4.3H60V90.1z"/>
<path class="st0" d="M66.5,90.1h-4.3v4.3h4.3V90.1z"/>
<path class="st0" d="M72.9,90.1h-4.3v4.3h4.3V90.1z"/>
<path class="st0" d="M34.3,53.6H30v8.6h4.3V53.6z"/>
<path class="st0" d="M40.7,53.6h-4.3v8.6h4.3V53.6z"/>
<path class="st0" d="M47.1,53.6h-4.3v8.6h4.3V53.6z"/>
<path class="st0" d="M34.3,64.3H30v8.6h4.3V64.3z"/>
<path class="st0" d="M40.7,64.3h-4.3v8.6h4.3V64.3z"/>
<path class="st0" d="M47.1,64.3h-4.3v8.6h4.3V64.3z"/>
<path class="st0" d="M34.3,75H30v8.6h4.3V75z"/>
<path class="st0" d="M40.7,75h-4.3v8.6h4.3V75z"/>
<path class="st0" d="M47.1,75h-4.3v8.6h4.3V75z"/>
<path class="st0" d="M34.3,85.8H30v8.6h4.3V85.8z"/>
<path class="st0" d="M40.7,85.8h-4.3v8.6h4.3V85.8z"/>
<path class="st0" d="M47.1,85.8h-4.3v8.6h4.3V85.8z"/>
</svg>
